docs/icons/codepen.svg

<svg width="128" height="128" viewBox="0 0 128 128" fill="none" xmlns="http://www.w3.org/2000/svg">
<rect width="128" height="128"/>
<path d="M105.965 50.7849C105.63 48.5997 103.196 47.4231 101.518 46.3306C98.4966 44.3135 95.5595 42.3805 92.5384 40.3635C85.4054 35.573 78.1885 30.7825 71.0555 25.9921C69.3772 24.8995 67.6988 23.7229 66.0205 22.6303C64.8456 21.7899 63.2512 21.7899 61.9924 22.6303C57.2091 25.824 52.3419 29.1017 47.5586 32.2953L26.4114 46.4146C24.5652 47.5912 22.1316 48.7678 22.0477 51.2891C21.9638 54.0626 22.0477 56.92 22.0477 59.6935V73.1404C22.0477 75.5777 21.5442 78.4352 23.8099 79.948C29.1807 83.6459 34.6353 87.1757 40.0899 90.7896C46.8034 95.2439 53.5168 99.7822 60.2302 104.237C62.0764 105.497 63.9225 106.842 66.1883 105.329C68.1184 104.068 69.9646 102.808 71.8947 101.547C79.3634 96.5886 86.832 91.546 94.3007 86.5874L102.609 81.0405C103.112 80.7043 103.699 80.3682 104.203 79.948C105.378 79.1075 105.881 77.9309 105.881 76.5022V53.3902C105.965 52.4657 106.049 51.6253 105.965 50.7849C105.965 50.7008 105.965 50.953 105.965 50.7849V50.7849ZM67.6149 32.3794L95.8951 51.2891L83.3075 59.7775L67.6149 49.2721V32.3794ZM60.398 32.3794V49.1881L44.7893 59.6935L32.1178 51.2891L60.398 32.3794V32.3794ZM29.2646 58.0126L38.2438 64.0637L29.2646 70.1149V58.0126ZM60.398 95.7481L32.1178 76.8383L44.7054 68.35L60.3141 78.8554V95.7481H60.398ZM64.0065 72.6362L51.251 64.0637L64.0065 55.4913L76.7619 64.0637L64.0065 72.6362ZM67.6149 95.7481V78.9394L83.2236 68.434L95.8112 76.9224L67.6149 95.7481V95.7481ZM98.7483 70.1149L89.7691 64.0637L98.8322 58.0126L98.7483 70.1149V70.1149Z" fill="white"/>
</svg>

<svg xmlns="http://www.w3.org/2000/svg" width="128" height="128" fill="none" xmlns:v="https://vecta.io/nano"><path d="M105.965 50.785c-.335-2.185-2.769-3.362-4.447-4.454l-8.98-5.967-21.483-14.371-5.035-3.362c-1.175-.84-2.769-.84-4.028 0l-14.434 9.665-21.147 14.119c-1.846 1.177-4.28 2.353-4.364 4.874v8.404V73.14c0 2.437-.503 5.295 1.762 6.808 5.371 3.698 10.825 7.228 16.28 10.842l20.14 13.447c1.846 1.26 3.692 2.605 5.958 1.092l5.706-3.782 22.406-14.96 8.308-5.547c.503-.336 1.09-.672 1.594-1.093 1.175-.84 1.678-2.017 1.678-3.446V53.39c.084-.925.168-1.765.084-2.605 0-.084 0 .168 0 0h0zm-38.35-18.406l28.28 18.91-12.588 8.488-15.693-10.505V32.379zm-7.217 0v16.809L44.789 59.694l-12.671-8.404 28.28-18.91h0zM29.265 58.013l8.979 6.051-8.979 6.051V58.013zm31.133 37.735l-28.28-18.91 12.588-8.488 15.609 10.505v16.893h.084zm3.608-23.112l-12.756-8.573 12.756-8.572 12.755 8.572-12.755 8.573zm3.608 23.112V78.939l15.609-10.505 12.588 8.488-28.196 18.826h0zm31.133-25.633l-8.979-6.051 9.063-6.051-.084 12.102h0z" fill="#fff"/></svg>
